TCanvas/fit1.svg

<svg xmlns="http://www.w3.org/2000/svg" viewBox="0 0 1200 800" preserveAspectRatio="none" width="1200" height="800">
 <path d="M0,0H1200V800H0Z" style="fill: white;"></path>
 <g>
  <g transform="translate(120,80)">
   <path d="M0,0H960V640H0Z" style="fill: white; stroke: black; stroke-width: 1;"></path>
   <g>
    <path d="M0,0v640M96,0v640M192,0v640M288,0v640M384,0v640M480,0v640M576,0v640M672,0v640M768,0v640M864,0v640M960,0v640" style="stroke: black; stroke-width: 1; stroke-dasharray: 1,2;"></path>
    <path d="M0,640h960M0,569h960M0,497h960M0,426h960M0,355h960M0,284h960M0,212h960M0,141h960M0,70h960" style="stroke: black; stroke-width: 1; stroke-dasharray: 1,2;"></path>
   </g>
   <svg x="0" y="0" overflow="hidden" width="960" height="640" viewBox="0 0 960 640">
    <g>
     <path d="M0,405h5v10h5v-10h4v-47h5v40h5v60h5v-64h5v68h4v-61h10v25h10v11h4v-7h5v64h5v-89h5v43h5v-33h4v54h5v-54h5v-28h5v57h5v-18h4v25h5v36h5v-22h5v18h5v-7h4v-25h5v18h5v-21h5v71h5v-61h4v7h5v7h5v40h5v-7h5v-4h4v-21h5v46h5v-36h5v54h5v-18h4v-39h5v28h5v-39h5v18h5v11h4v46h5v-18h5v-61h5v11h5v-39h4v75h5v-64h5v3h10v-28h4v32h5v-104h5v75h5v-25h5v7h4v-53h5v-32h5v-61h5v50h5v-43h4v8h5v-18h5v-43h5v-7h5v3h4v-39h5v-7h5v-4h5v40h5v-143h4v57h5v39h5v7h5v-35h5v-82h4v-22h5v79h5v-25h5v75h5v-89h4v21h5v-3h5v-54h5v132h5v36h4v-8h5v15h5v-32h5v28h5v-32h4v54h5v71h5v-71h5v67h5v-46h4v93h5v-50h5v53h5v-7h5v-28h4v89h5v28h5v-18h5v7h5v54h4v-7h5v14h5v-18h5v61h5v14h4v-68h5v47h5v10h5v43h5v-32h4v29h5v14h5v28h5v-10h5v-11h4v7h10v18h5v-7h5v-4h4v11h5v-11h5v-25h5v32h5v15h4v-11h5v-21h5v28h5v-18h5v14h4v-3h5v21h5v-18h5v-3h5v-25h4v36h5v3h5v-25h5v14h5v-3h4v7h5v-7h5v-11h5v14h5v4h4v-14h5v7h5v-4h5v18h5v-14h9v21h5v-14h5v-18h5v7h4v15h5v7h5v-11h5v7h5v-11h4v15h5v-7h5v10h10v-21h4v7h5v18h5v-7h5v3h5v7h4v-3h5v3h5v-3h5v7h14v-7h5v7h10v-11h4v4h5v3h5v-10h5v7h5v7h4v-11h5v-14h5L960,643H0Z" style="stroke-linejoin: miter; stroke: #00009a; stroke-width: 1; fill: #c08378;"></path>
    </g>
    <g>
     <path d="M5,414l10,1l9,1l10,2l9,3l10,4l10,4l9,5l10,6l9,5l10,7l10,6l9,7l10,7l9,7l10,7l10,6l9,6l10,5l9,3l10,2l10,1l9,-1l10,-4l9,-6l10,-8l10,-12l9,-13l10,-17l9,-19l10,-21l10,-24l9,-38l10,-37l9,-37l10,-34l10,-32l9,-29l10,-25l9,-20l10,-14l10,-10l9,-3l10,2l9,9l10,13l10,18l9,23l10,26l9,30l10,31l10,33l9,33l10,34l9,32l10,32l10,29l9,28l10,26l9,23l10,21l10,19l9,17l10,9l9,6l10,4l10,3l9,2l10,2h9l10,1h10h9l10,-1h9h10h10h9l10,1h9l10,1l10,1l9,2l10,1l9,2l10,2l10,2l9,2l10,2l9,2l10,3l10,2l9,3l10,2l9,1l10,-2l10,-2l9,-2l10,-2l9,-2" style="fill: none; stroke: blue; stroke-width: 6;"></path>
    </g>
   </svg>
   <g>
    <g transform="translate(0,640)">
     <path d="M0,0h960M0,-24V0M19,-12V0M38,-12V0M58,-12V0M77,-12V0M96,-24V0M115,-12V0M134,-12V0M154,-12V0M173,-12V0M192,-24V0M211,-12V0M230,-12V0M250,-12V0M269,-12V0M288,-24V0M307,-12V0M326,-12V0M346,-12V0M365,-12V0M384,-24V0M403,-12V0M422,-12V0M442,-12V0M461,-12V0M480,-24V0M499,-12V0M518,-12V0M538,-12V0M557,-12V0M576,-24V0M595,-12V0M614,-12V0M634,-12V0M653,-12V0M672,-24V0M691,-12V0M710,-12V0M730,-12V0M749,-12V0M768,-24V0M787,-12V0M806,-12V0M826,-12V0M845,-12V0M864,-24V0M883,-12V0M902,-12V0M922,-12V0M941,-12V0M960,-24V0" style="stroke: black; stroke-width: 1;"></path>
     <g font-family="Arial" font-size="28" space="preserve" fill="black" text-anchor="middle">
      <text dy=".8em" transform="translate(0,1)">
       0
      </text>
      <text dy=".8em" transform="translate(96,1)">
       1
      </text>
      <text dy=".8em" transform="translate(192,1)">
       2
      </text>
      <text dy=".8em" transform="translate(288,1)">
       3
      </text>
      <text dy=".8em" transform="translate(384,1)">
       4
      </text>
      <text dy=".8em" transform="translate(480,1)">
       5
      </text>
      <text dy=".8em" transform="translate(576,1)">
       6
      </text>
      <text dy=".8em" transform="translate(672,1)">
       7
      </text>
      <text dy=".8em" transform="translate(768,1)">
       8
      </text>
      <text dy=".8em" transform="translate(864,1)">
       9
      </text>
      <text dy=".8em" transform="translate(960,1)">
       10
      </text>
     </g>
    </g>
    <g>
     <path d="M0,0v640M36,640H0M18,622H0M18,604H0M18,587H0M36,569H0M18,551H0M18,533H0M18,515H0M36,497H0M18,480H0M18,462H0M18,444H0M36,426H0M18,408H0M18,390H0M18,373H0M36,355H0M18,337H0M18,319H0M18,301H0M36,284H0M18,266H0M18,248H0M18,230H0M36,212H0M18,194H0M18,177H0M18,159H0M36,141H0M18,123H0M18,105H0M18,88H0M36,70H0M18,52H0M18,34H0M18,16H0" style="stroke: black; stroke-width: 1;"></path>
     <g font-family="Arial" font-size="28" space="preserve" fill="black" text-anchor="end">
      <text dy=".4em" transform="translate(-4,640)">
       0
      </text>
      <text dy=".4em" transform="translate(-4,569)">
       20
      </text>
      <text dy=".4em" transform="translate(-4,497)">
       40
      </text>
      <text dy=".4em" transform="translate(-4,426)">
       60
      </text>
      <text dy=".4em" transform="translate(-4,355)">
       80
      </text>
      <text dy=".4em" transform="translate(-4,284)">
       100
      </text>
      <text dy=".4em" transform="translate(-4,212)">
       120
      </text>
      <text dy=".4em" transform="translate(-4,141)">
       140
      </text>
      <text dy=".4em" transform="translate(-4,70)">
       160
      </text>
     </g>
    </g>
   </g>
  </g>
  <g transform="translate(936,52)" font-family="Arial" font-size="25" space="preserve" fill="black">
   <path d="M0,0H240V128H0Z" style="fill: white; stroke: black; stroke-width: 1;"></path>
   <text text-anchor="middle" dy=".4em" transform="translate(120,16)">
    h1f
   </text>
   <text text-anchor="start" dy=".4em" transform="translate(12,48)">
    Entries
   </text>
   <text text-anchor="end" dy=".4em" transform="translate(228,48)">
    10000
   </text>
   <text text-anchor="start" dy=".4em" transform="translate(12,80)">
    Mean
   </text>
   <text text-anchor="end" dy=".4em" transform="translate(228,80)">
    3.646
   </text>
   <text text-anchor="start" dy=".4em" transform="translate(12,112)">
    Std Dev
   </text>
   <text text-anchor="end" dy=".4em" transform="translate(228,112)">
    1.840
   </text>
   <path d="M0,32h240" style="stroke: black; stroke-width: 1;"></path>
  </g>
  <g transform="translate(720,200)" font-family="Arial" font-size="12" space="preserve" font-weight="bold" fill="black" text-anchor="start">
   <path d="M4,4v280h360v-280z" style="fill: black; stroke: black; stroke-width: 1px;"></path>
   <path d="M0,0H360V280H0Z" style="fill: #dfbb88; stroke: black; stroke-width: 1;"></path>
   <text dy=".4em" transform="translate(18,11)">
    TCanvas * c1 = new TCanvas("c1","Canvas");
   </text>
   <text dy=".4em" transform="translate(18,32)">
    c1-&gt;SetGridx();
   </text>
   <text dy=".4em" transform="translate(18,54)">
    c1-&gt;SetGridy();
   </text>
   <text dy=".4em" transform="translate(18,75)">
    TFile * file = new TFile("fillrandom.root");
   </text>
   <text dy=".4em" transform="translate(18,97)">
    file-&gt;ls();
   </text>
   <text dy=".4em" transform="translate(18,118)">
    TF1 * sqroot = 0;
   </text>
   <text dy=".4em" transform="translate(18,140)">
    file-&gt;GetObject("sqroot",sqroot);
   </text>
   <text dy=".4em" transform="translate(18,162)">
    sqroot-&gt;Print();
   </text>
   <text dy=".4em" transform="translate(18,205)">
    TH1 * h1f = 0;
   </text>
   <text dy=".4em" transform="translate(18,226)">
    file-&gt;GetObject("h1f",h1f);
   </text>
   <text dy=".4em" transform="translate(18,269)">
    h1f-&gt;Fit("sqroot");
   </text>
  </g>
  <g transform="translate(371,4)" font-family="Arial" font-size="36" space="preserve">
   <text fill="black" text-anchor="middle" dy=".4em" transform="translate(229,22)">
    Test random numbers
   </text>
  </g>
 </g>
</svg>

<svg xmlns="http://www.w3.org/2000/svg" viewBox="0 0 1200 800" preserveAspectRatio="none" width="1200" height="800">
 <path d="M0,0H1200V800H0Z" style="fill: white;"></path>
 <g>
  <g transform="translate(120,80)">
   <path d="M0,0H960V640H0Z" style="fill: white; stroke: black; stroke-width: 1;"></path>
   <g>
    <path d="M0,0v640M96,0v640M192,0v640M288,0v640M384,0v640M480,0v640M576,0v640M672,0v640M768,0v640M864,0v640M960,0v640" style="stroke: black; stroke-width: 1; stroke-dasharray: 1,2;"></path>
    <path d="M0,640h960M0,569h960M0,497h960M0,426h960M0,355h960M0,284h960M0,212h960M0,141h960M0,70h960" style="stroke: black; stroke-width: 1; stroke-dasharray: 1,2;"></path>
   </g>
   <svg x="0" y="0" overflow="hidden" width="960" height="640" viewBox="0 0 960 640">
    <g>
     <path d="M0,405h5v10h5v-10h4v-47h5v40h5v60h5v-64h5v68h4v-61h10v25h10v11h4v-7h5v64h5v-89h5v43h5v-33h4v54h5v-54h5v-28h5v57h5v-18h4v25h5v36h5v-22h5v18h5v-7h4v-25h5v18h5v-21h5v71h5v-61h4v7h5v7h5v40h5v-7h5v-4h4v-21h5v46h5v-36h5v54h5v-18h4v-39h5v28h5v-39h5v18h5v11h4v46h5v-18h5v-61h5v11h5v-39h4v75h5v-64h5v3h10v-28h4v32h5v-104h5v75h5v-25h5v7h4v-53h5v-32h5v-61h5v50h5v-43h4v8h5v-18h5v-43h5v-7h5v3h4v-39h5v-7h5v-4h5v40h5v-143h4v57h5v39h5v7h5v-35h5v-82h4v-22h5v79h5v-25h5v75h5v-89h4v21h5v-3h5v-54h5v132h5v36h4v-8h5v15h5v-32h5v28h5v-32h4v54h5v71h5v-71h5v67h5v-46h4v93h5v-50h5v53h5v-7h5v-28h4v89h5v28h5v-18h5v7h5v54h4v-7h5v14h5v-18h5v61h5v14h4v-68h5v47h5v10h5v43h5v-32h4v29h5v14h5v28h5v-10h5v-11h4v7h10v18h5v-7h5v-4h4v11h5v-11h5v-25h5v32h5v15h4v-11h5v-21h5v28h5v-18h5v14h4v-3h5v21h5v-18h5v-3h5v-25h4v36h5v3h5v-25h5v14h5v-3h4v7h5v-7h5v-11h5v14h5v4h4v-14h5v7h5v-4h5v18h5v-14h9v21h5v-14h5v-18h5v7h4v15h5v7h5v-11h5v7h5v-11h4v15h5v-7h5v10h10v-21h4v7h5v18h5v-7h5v3h5v7h4v-3h5v3h5v-3h5v7h14v-7h5v7h10v-11h4v4h5v3h5v-10h5v7h5v7h4v-11h5v-14h5L960,643H0Z" style="stroke-linejoin: miter; stroke: #00009a; stroke-width: 1; fill: #c08378;"></path>
    </g>
    <g>
     <path d="M5,414L15,415L24,416L34,418L43,421L53,425L63,429L72,434L82,440L91,445L101,452L111,458L120,465L130,472L139,479L149,486L159,492L168,498L178,503L187,506L197,508L207,509L216,508L226,504L235,498L245,490L255,478L264,465L274,448L283,429L293,408L303,384L312,346L322,309L331,272L341,238L351,206L360,177L370,152L379,132L389,118L399,108L408,105L418,107L427,116L437,129L447,147L456,170L466,196L475,226L485,257L495,290L504,323L514,357L523,389L533,421L543,450L552,478L562,504L571,527L581,548L591,567L600,584L610,593L619,599L629,603L639,606L648,608L658,610L667,610L677,611L687,611L696,611L706,610L715,610L725,610L735,610L744,610L754,611L763,611L773,612L783,613L792,615L802,616L811,618L821,620L831,622L840,624L850,626L859,628L869,631L879,633L888,636L898,638L907,639L917,637L927,635L936,633L946,631L955,629" style="fill: none; stroke: blue; stroke-width: 6;"></path>
    </g>
   </svg>
   <g>
    <g transform="translate(0,640)">
     <path d="M0,0h960M0,-24V0M19,-12V0M38,-12V0M58,-12V0M77,-12V0M96,-24V0M115,-12V0M134,-12V0M154,-12V0M173,-12V0M192,-24V0M211,-12V0M230,-12V0M250,-12V0M269,-12V0M288,-24V0M307,-12V0M326,-12V0M346,-12V0M365,-12V0M384,-24V0M403,-12V0M422,-12V0M442,-12V0M461,-12V0M480,-24V0M499,-12V0M518,-12V0M538,-12V0M557,-12V0M576,-24V0M595,-12V0M614,-12V0M634,-12V0M653,-12V0M672,-24V0M691,-12V0M710,-12V0M730,-12V0M749,-12V0M768,-24V0M787,-12V0M806,-12V0M826,-12V0M845,-12V0M864,-24V0M883,-12V0M902,-12V0M922,-12V0M941,-12V0M960,-24V0" style="stroke: black; stroke-width: 1;"></path>
     <g font-family="Arial" font-size="28" space="preserve" fill="black" text-anchor="middle">
      <text dy=".8em" transform="translate(0,1)">
       0
      </text>
      <text dy=".8em" transform="translate(96,1)">
       1
      </text>
      <text dy=".8em" transform="translate(192,1)">
       2
      </text>
      <text dy=".8em" transform="translate(288,1)">
       3
      </text>
      <text dy=".8em" transform="translate(384,1)">
       4
      </text>
      <text dy=".8em" transform="translate(480,1)">
       5
      </text>
      <text dy=".8em" transform="translate(576,1)">
       6
      </text>
      <text dy=".8em" transform="translate(672,1)">
       7
      </text>
      <text dy=".8em" transform="translate(768,1)">
       8
      </text>
      <text dy=".8em" transform="translate(864,1)">
       9
      </text>
      <text dy=".8em" transform="translate(960,1)">
       10
      </text>
     </g>
    </g>
    <g>
     <path d="M0,0v640M36,640H0M18,622H0M18,604H0M18,587H0M36,569H0M18,551H0M18,533H0M18,515H0M36,497H0M18,480H0M18,462H0M18,444H0M36,426H0M18,408H0M18,390H0M18,373H0M36,355H0M18,337H0M18,319H0M18,301H0M36,284H0M18,266H0M18,248H0M18,230H0M36,212H0M18,194H0M18,177H0M18,159H0M36,141H0M18,123H0M18,105H0M18,88H0M36,70H0M18,52H0M18,34H0M18,16H0" style="stroke: black; stroke-width: 1;"></path>
     <g font-family="Arial" font-size="28" space="preserve" fill="black" text-anchor="end">
      <text dy=".4em" transform="translate(-4,640)">
       0
      </text>
      <text dy=".4em" transform="translate(-4,569)">
       20
      </text>
      <text dy=".4em" transform="translate(-4,497)">
       40
      </text>
      <text dy=".4em" transform="translate(-4,426)">
       60
      </text>
      <text dy=".4em" transform="translate(-4,355)">
       80
      </text>
      <text dy=".4em" transform="translate(-4,284)">
       100
      </text>
      <text dy=".4em" transform="translate(-4,212)">
       120
      </text>
      <text dy=".4em" transform="translate(-4,141)">
       140
      </text>
      <text dy=".4em" transform="translate(-4,70)">
       160
      </text>
     </g>
    </g>
   </g>
  </g>
  <g transform="translate(936,52)" font-family="Arial" font-size="25" space="preserve" fill="black">
   <path d="M0,0H240V128H0Z" style="fill: white; stroke: black; stroke-width: 1;"></path>
   <text text-anchor="middle" dy=".4em" transform="translate(120,16)">
    h1f
   </text>
   <text text-anchor="start" dy=".4em" transform="translate(12,48)">
    Entries
   </text>
   <text text-anchor="end" dy=".4em" transform="translate(228,48)">
    10000
   </text>
   <text text-anchor="start" dy=".4em" transform="translate(12,80)">
    Mean
   </text>
   <text text-anchor="end" dy=".4em" transform="translate(228,80)">
    3.646
   </text>
   <text text-anchor="start" dy=".4em" transform="translate(12,112)">
    Std Dev
   </text>
   <text text-anchor="end" dy=".4em" transform="translate(228,112)">
    1.840
   </text>
   <path d="M0,32h240" style="stroke: black; stroke-width: 1;"></path>
  </g>
  <g transform="translate(720,200)" font-family="Arial" font-size="12" space="preserve" font-weight="bold" fill="black" text-anchor="start">
   <path d="M4,4v280h360v-280z" style="fill: black; stroke: black; stroke-width: 1px;"></path>
   <path d="M0,0H360V280H0Z" style="fill: #dfbb88; stroke: black; stroke-width: 1;"></path>
   <text dy=".4em" transform="translate(18,11)">
    TCanvas * c1 = new TCanvas("c1","Canvas");
   </text>
   <text dy=".4em" transform="translate(18,32)">
    c1-&gt;SetGridx();
   </text>
   <text dy=".4em" transform="translate(18,54)">
    c1-&gt;SetGridy();
   </text>
   <text dy=".4em" transform="translate(18,75)">
    TFile * file = new TFile("fillrandom.root");
   </text>
   <text dy=".4em" transform="translate(18,97)">
    file-&gt;ls();
   </text>
   <text dy=".4em" transform="translate(18,118)">
    TF1 * sqroot = 0;
   </text>
   <text dy=".4em" transform="translate(18,140)">
    file-&gt;GetObject("sqroot",sqroot);
   </text>
   <text dy=".4em" transform="translate(18,162)">
    sqroot-&gt;Print();
   </text>
   <text dy=".4em" transform="translate(18,205)">
    TH1 * h1f = 0;
   </text>
   <text dy=".4em" transform="translate(18,226)">
    file-&gt;GetObject("h1f",h1f);
   </text>
   <text dy=".4em" transform="translate(18,269)">
    h1f-&gt;Fit("sqroot");
   </text>
  </g>
  <g transform="translate(371,4)" font-family="Arial" font-size="36" space="preserve">
   <text fill="black" text-anchor="middle" dy=".4em" transform="translate(229,22)">
    Test random numbers
   </text>
  </g>
 </g>
</svg>
